Apricity Icons/22/panel/keybase-badged.svg

<svg xmlns="http://www.w3.org/2000/svg" width="22" height="22" version="1.1">
 <defs>
  <style id="current-color-scheme" type="text/css">
   .ColorScheme-Text { color:#dfdfdf; } .ColorScheme-Highlight { color:#4285f4; }
  </style>
 </defs>
 <path style="fill:currentColor" class="ColorScheme-Text" d="M 9.3378906 3 C 9.2917506 3 8.9898905 3.5097587 8.703125 4.0722656 C 8.2833253 4.8957293 8.0823547 5.5282129 8.0136719 6.2597656 C 7.9967029 6.44054 8.0003427 6.6184414 8.0117188 6.7929688 C 8.0046387 6.8715927 8.00072 6.9503658 8 7.0292969 C 8 7.350909 8.06468 7.6552539 8.1601562 7.9453125 C 6.8950986 8.5095454 5.823752 9.4303825 5.0878906 10.589844 C 4.9068303 10.826602 4.7468155 11.073389 4.6308594 11.337891 C 4.4486475 11.753525 4.313504 12.183713 4.2109375 12.648438 C 4.1426895 12.924193 4.0852482 13.20267 4.0507812 13.490234 C 4.0477112 13.515834 4.0557914 13.521208 4.0683594 13.517578 C 4.0552044 13.628341 4.0375767 13.733607 4.0273438 13.849609 C 3.9945383 14.221494 3.9905989 14.374998 4.015625 14.375 L 8 10 L 6.96875 13.455078 C 6.97482 13.461178 7.1062877 13.407508 7.2617188 13.335938 C 8.2166789 12.896237 9.4068475 12.129473 10.458984 12.003906 C 10.821824 11.960606 12.080719 11.956444 12.458984 11.996094 C 13.225236 12.076384 13.924789 12.66763 14.785156 12.904297 C 15.16638 13.009168 15.353785 13.034767 15.666016 13.023438 C 15.978476 13.012118 16.161765 12.970368 16.392578 12.859375 C 16.968534 12.582416 17.271543 11.981039 17.1875 11.332031 C 17.1796 11.270861 17.162791 11.21171 17.150391 11.152344 C 17.175081 11.091224 17.152088 10.988693 17.054688 10.818359 C 16.958797 10.563556 16.816689 10.307994 16.603516 10.019531 C 15.812925 9.1507616 14.885394 8.4287802 13.837891 7.9492188 C 13.934232 7.6579794 14 7.3524242 14 7.0292969 C 13.999974 6.9537899 13.997887 6.8780222 13.992188 6.8027344 C 13.994788 6.7274754 14.001947 6.6521806 13.998047 6.578125 C 13.944926 5.5609826 13.350328 4.8631388 12.453125 4.4042969 C 11.978118 4.1613714 11.251468 4.0478117 10.777344 4.046875 C 10.185851 4.045709 9.7363509 3.5371451 9.4472656 3.1210938 C 9.4009907 3.0544933 9.3516794 2.9999994 9.3378906 3 z M 17.832031 12.828125 C 17.596352 13.220568 17.257983 13.552121 16.826172 13.759766 C 16.497288 13.917917 16.09035 14.009408 15.703125 14.023438 C 15.321853 14.037268 14.941439 13.985198 14.519531 13.869141 C 13.382163 13.556277 12.67841 13.024073 12.355469 12.990234 C 12.213148 12.975324 10.678186 12.984094 10.578125 12.996094 C 9.9135234 13.075414 8.7491037 13.751739 7.6796875 14.244141 C 7.5909405 14.285001 7.5096359 14.321391 7.4355469 14.351562 C 7.3985019 14.366642 7.3668919 14.379364 7.3164062 14.396484 C 7.2911633 14.405084 7.2657062 14.414497 7.1992188 14.429688 C 7.1659748 14.437288 7.1266108 14.447525 7.0273438 14.453125 C 6.9777107 14.455925 6.7992596 14.441486 6.7988281 14.441406 C 6.7986124 14.441366 6.5782807 14.37507 6.578125 14.375 C 6.5779693 14.374934 6.2598605 14.160252 6.2597656 14.160156 A 1.0001 1.0001 0 0 1 5.9960938 13.6875 L 4.7558594 15.048828 A 1.0001 1.0001 0 0 1 4.0898438 15.373047 A 6.9999312 6.9999312 0 0 0 5.7929688 19 L 16.208984 19 A 6.9999312 6.9999312 0 0 0 18 14.333984 A 6.9999312 6.9999312 0 0 0 17.832031 12.828125 z M 8 15 A 1 1 0 0 1 9 16 A 1 1 0 0 1 8 17 A 1 1 0 0 1 7 16 A 1 1 0 0 1 8 15 z M 14 15 A 1 1 0 0 1 15 16 A 1 1 0 0 1 14 17 A 1 1 0 0 1 13 16 A 1 1 0 0 1 14 15 z"/>
 <circle style="fill:currentColor" class="ColorScheme-Highlight" cx="18" cy="6" r="2"/>
</svg>

<svg xmlns="http://www.w3.org/2000/svg" width="22" height="22"><path d="M9.338 3c-.046 0-.348.51-.635 1.072-.42.824-.62 1.456-.69 2.188-.016.18-.013.358-.001.533A2.932 2.932 0 0 0 8 7.029c0 .322.065.626.16.916a7.027 7.027 0 0 0-3.072 2.645 3.671 3.671 0 0 0-.457.748 6.966 6.966 0 0 0-.42 1.31 6.922 6.922 0 0 0-.16.842c-.003.026.005.031.017.028-.013.11-.03.216-.04.332-.033.371-.037.525-.012.525L8 10l-1.031 3.455c.006.006.137-.047.293-.12.955-.439 2.145-1.206 3.197-1.331.363-.043 1.622-.048 2-.008.766.08 1.466.672 2.326.908.381.105.569.13.881.12.312-.012.496-.054.727-.165.576-.277.879-.878.794-1.527-.007-.061-.024-.12-.037-.18.025-.06.002-.163-.095-.334a3.278 3.278 0 0 0-.451-.798c-.791-.87-1.719-1.591-2.766-2.07a2.915 2.915 0 0 0 .154-1.147c.003-.076.01-.15.006-.225-.053-1.017-.648-1.715-1.545-2.174-.475-.243-1.202-.356-1.676-.357-.591-.001-1.04-.51-1.33-.926C9.401 3.054 9.352 3 9.337 3zm8.494 9.828a2.38 2.38 0 0 1-1.006.932c-.329.158-.736.25-1.123.263a3.862 3.862 0 0 1-1.183-.154c-1.138-.313-1.842-.845-2.165-.879a38.922 38.922 0 0 0-1.777.006c-.664.08-1.829.756-2.898 1.248-.09.041-.17.077-.244.108a1.896 1.896 0 0 1-.12.044c-.025.01-.05.018-.117.034-.033.007-.072.018-.172.023a3.152 3.152 0 0 1-.228-.012l-.22-.066-.32-.215a1 1 0 0 1-.263-.473l-1.24 1.362a1 1 0 0 1-.666.324A7 7 0 0 0 5.793 19h10.416A7 7 0 0 0 18 14.334a7 7 0 0 0-.168-1.506zM8 15a1 1 0 0 1 1 1 1 1 0 0 1-1 1 1 1 0 0 1-1-1 1 1 0 0 1 1-1zm6 0a1 1 0 0 1 1 1 1 1 0 0 1-1 1 1 1 0 0 1-1-1 1 1 0 0 1 1-1z" fill="currentColor" color="#dfdfdf"/><circle cx="18" cy="6" r="2" fill="currentColor" color="#5294e2"/></svg>
